!!!OTL: ELF BRAEUTE SIND VON MIR GELIEBT
!!!ARE: Europa, Mitteleuropa, Deutschland
!!!SCT: F0215
!!!YEM: Copyright 1995, estate of Helmut Schaffrath.
**kern
*ICvox
*Ivox
*M3/4
*k[f#]
*G:
{8d
=1
8.dd
16cc
8b
8a
8g
8b
=2
4a
4.r}
{8d
=3
4.cc
8b
8a
8dd
=4
4b
4.r}
{8b
=5
8.b
16a
8a
8a
8b
8cc#
=6
4dd
8r}
{8dd
8cc#
8b
=7
8a
4.ff#
4ee
=8
4dd
4.r}
{8dd
=9
8dd
8cc
4.a
16b
16cc
=10
8dd
8ee
4dd
8r}
{8dd
=11
8.dd
16cc
8a
8a
8b
8cc
=12
4dd
8r}
{8dd
8b
8g
=13
2ee
4ee
=14
2dd
8cc
8a
=15
4g
4.r}
==
!!!AGN: national, patriotisch; Liebes - Lied
!!!ONB: ESAC (Essen Associative Code) Database: FINK
!!!AMT: simple triple
!!!AIN: vox
!!!EED: Helmut Schaffrath
!!!EEV: 1.0
*-
